X: 30881
T: Out On The Roof
R: waltz
M: 3/4
K: Bminor
"Bm7" F2 B2 cd|"A" dB cd cA|"G" FB ~B2 cd|
"A" fe ef ga|"Bm7" f3f gf|"A" fe (3Bcd ec|
[1 "G" d2 df ed|"F#7" Bc2d cA:|2 "G" d2 de "A" (3dcA|"Bm7" B3c de||
|:"Gmaj7/E" f2 Bf gf|fe (3Bcd ec|d2 df ed|
ce "D/F#" a3g|"Gmaj7" f3f gf|fe (3Bcd ec|
[1 d2 df ed|Bc2"D/F#"e fg:|2 "Gmaj7" d2 de (3dcA|"A" B4 BA||
|:"Bm7" FB f4|"A" EA e4|"G" DG d4|
"A" EA c3A|"Bm7" B2 BABc|"A/C#" dB cd cA|
[1 "D" B2 fe de|"A/C#" ce ge cA:|2 "G" B2 (3Bcd "A" (3cBA|"Bm7" B3c BA||

